packages/astro-components-stencil/src/icons/notes.svg

<svg xmlns="http://www.w3.org/2000/svg" viewBox="0 0 24 24"><g xmlns="http://www.w3.org/2000/svg" id="notes" fill-rule="nonzero">
            <path d="M20 11H4c-.55 0-1 .45-1 1s.45 1 1 1h16c.55 0 1-.45 1-1s-.45-1-1-1zM4 18h10c.55 0 1-.45 1-1s-.45-1-1-1H4c-.55 0-1 .45-1 1s.45 1 1 1zM20 6H4c-.55 0-1 .45-1 1v.01c0 .55.45 1 1 1h16c.55 0 1-.45 1-1V7c0-.55-.45-1-1-1z"/>
        </g></svg>

<svg width="24" height="24" viewBox="0 0 24 24" fill="none" xmlns="http://www.w3.org/2000/svg">
<path fill-rule="evenodd" clip-rule="evenodd" d="M4 6H20C20.55 6 21 6.45 21 7V7.01C21 7.56 20.55 8.01 20 8.01H4C3.45 8.01 3 7.56 3 7.01V7C3 6.45 3.45 6 4 6ZM20 11H4C3.45 11 3 11.45 3 12C3 12.55 3.45 13 4 13H20C20.55 13 21 12.55 21 12C21 11.45 20.55 11 20 11ZM4 18H14C14.55 18 15 17.55 15 17C15 16.45 14.55 16 14 16H4C3.45 16 3 16.45 3 17C3 17.55 3.45 18 4 18Z" fill="black"/>
</svg>
